apps/web/src/assets/svgs/cursor.svg

<?xml version="1.0" encoding="UTF-8" standalone="no"?>
<!-- Created with Inkscape (http://www.inkscape.org/) -->

<svg
   width="8mm"
   height="8mm"
   viewBox="0 0 8 8"
   version="1.1"
   id="svg1"
   sodipodi:docname="cursor_flat.svg"
   inkscape:version="1.3.2 (091e20ef0f, 2023-11-25)"
   xmlns:inkscape="http://www.inkscape.org/namespaces/inkscape"
   xmlns:sodipodi="http://sodipodi.sourceforge.net/DTD/sodipodi-0.dtd"
   xmlns="http://www.w3.org/2000/svg"
   xmlns:svg="http://www.w3.org/2000/svg">
  <sodipodi:namedview
     id="namedview1"
     pagecolor="#ffffff"
     bordercolor="#000000"
     borderopacity="0.25"
     inkscape:showpageshadow="2"
     inkscape:pageopacity="0.0"
     inkscape:pagecheckerboard="0"
     inkscape:deskcolor="#d1d1d1"
     inkscape:document-units="mm"
     inkscape:zoom="14.870906"
     inkscape:cx="21.047809"
     inkscape:cy="20.375355"
     inkscape:window-width="2560"
     inkscape:window-height="1515"
     inkscape:window-x="0"
     inkscape:window-y="1415"
     inkscape:window-maximized="1"
     inkscape:current-layer="layer1" />
  <defs
     id="defs1" />
  <g
     inkscape:label="Capa 1"
     inkscape:groupmode="layer"
     id="layer1"
     transform="translate(-189.56165,-113.14109)">
    <g
       id="g493-1"
       transform="rotate(-45,232.41341,-23.771598)">
      <path
         id="path492-5"
         style="color:#000000;fill:#000000;stroke-linecap:round;stroke-linejoin:round;-inkscape-stroke:none"
         d="M 105.51488 44.299812 A 0.30003001 0.30003001 0 0 0 105.30075 44.210653 A 0.30003001 0.30003001 0 0 0 105.02158 44.398472 L 102.79698 49.945359 A 0.30003001 0.30003001 0 0 0 103.19929 50.330133 L 105.00002 49.516736 L 105.00002 52.222944 A 0.30000001 0.30000001 0 0 0 105.30075 52.523675 A 0.30000001 0.30000001 0 0 0 105.60185 52.222579 L 105.60148 49.516736 L 107.40221 50.330133 A 0.30003001 0.30003001 0 0 0 107.80452 49.945359 L 105.57992 44.398472 A 0.30003001 0.30003001 0 0 0 105.51488 44.299812 z M 105.30075 45.318569 L 106.97103 49.476541 L 105.42389 48.777151 A 0.30003001 0.30003001 0 0 0 105.17761 48.777151 L 103.6312 49.476541 L 105.30075 45.318569 z " />
    </g>
  </g>
</svg>

<?xml version="1.0" encoding="UTF-8" standalone="no"?>
<!-- Created with Inkscape (http://www.inkscape.org/) -->

<svg
   width="9.7502365mm"
   height="9.7502365mm"
   viewBox="0 0 9.7502365 9.7502365"
   version="1.1"
   id="svg1"
   sodipodi:docname="cursor_flat.svg"
   inkscape:version="1.3.2 (091e20ef0f, 2023-11-25)"
   xmlns:inkscape="http://www.inkscape.org/namespaces/inkscape"
   xmlns:sodipodi="http://sodipodi.sourceforge.net/DTD/sodipodi-0.dtd"
   xmlns="http://www.w3.org/2000/svg"
   xmlns:svg="http://www.w3.org/2000/svg">
  <sodipodi:namedview
     id="namedview1"
     pagecolor="#ffffff"
     bordercolor="#000000"
     borderopacity="0.25"
     inkscape:showpageshadow="2"
     inkscape:pageopacity="0.0"
     inkscape:pagecheckerboard="0"
     inkscape:deskcolor="#d1d1d1"
     inkscape:document-units="mm"
     inkscape:zoom="18.097019"
     inkscape:cx="18.345562"
     inkscape:cy="30.557518"
     inkscape:window-width="2560"
     inkscape:window-height="1515"
     inkscape:window-x="0"
     inkscape:window-y="1415"
     inkscape:window-maximized="1"
     inkscape:current-layer="layer1" />
  <defs
     id="defs1" />
  <g
     inkscape:label="Capa 1"
     inkscape:groupmode="layer"
     id="layer1"
     transform="translate(-172.52985,-50.20407)">
    <g
       id="g448-4"
       transform="rotate(-45,149.41973,-35.29971)">
      <path
         id="path447-9"
         style="color:#000000;fill:#000000;stroke-linecap:round;stroke-linejoin:round;-inkscape-stroke:none"
         d="m 105.02121,44.398501 c -0.74153,1.848962 -2.2246,5.546887 -2.2246,5.546887 -0.10018,0.251018 0.15658,0.496129 0.40268,0.384408 l 1.80073,-0.813397 v 2.706209 c -4.1e-4,0.166256 0.13447,0.301135 0.30073,0.30073 0.16626,4.05e-4 0.30114,-0.134474 0.30073,-0.30073 v -2.706209 l 1.80109,0.813763 c 0.2462,0.111482 0.50272,-0.133854 0.40232,-0.384774 0,0 -1.48307,-3.697925 -2.2246,-5.546887 -0.0992,-0.247399 -0.45917,-0.249122 -0.55908,0 z m 0.27954,0.919731 1.66991,4.158338 -1.54677,-0.699025 c -0.0783,-0.03525 -0.16797,-0.03525 -0.24628,0 l -1.54677,0.699025 z"
         sodipodi:nodetypes="scccccccccsscccccc" />
    </g>
  </g>
</svg>
